X:13
T:Delany's
M:6/8
L:1/8
R:Jig
K:G
A2 A DED|AFA dcA|GEE cEE| G2 E DEG|
A2 A DED|AFA dcA|GEE cEE|DED D2 B:||
Adc ABd|ecA dcA| GEE cEE| G2 E DEG|
Adc ABd| ecA dcA|GEE cEE|DED D3 :||
